src/assets/icons/log-off.svg

<svg width="24" height="24" viewBox="0 0 24 24" fill="none" xmlns="http://www.w3.org/2000/svg">
<path d="M10.141 11.1571V1.85952C10.141 0.833477 10.9744 0 12.0005 0C13.0265 0 13.86 0.833477 13.86 1.85952V11.1571C13.86 12.1832 13.0265 13.0167 12.0005 13.0167C10.9744 13.0167 10.141 12.1832 10.141 11.1571ZM19.3714 2.72658C18.769 2.2496 17.8901 2.35428 17.4132 2.95766C16.9362 3.56203 17.0399 4.43896 17.6442 4.91692C19.8563 6.66189 21.1243 9.2749 21.1243 12.0874C21.1243 17.1179 17.031 21.2112 12.0015 21.2112C6.97099 21.2112 2.87767 17.1179 2.87767 12.0874C2.87767 9.27589 4.14467 6.66387 6.35477 4.91989C6.95914 4.44291 7.06283 3.56598 6.58585 2.96062C6.10888 2.35625 5.23293 2.25355 4.62659 2.72954C1.74201 5.0058 0.0878906 8.41674 0.0878906 12.0874C0.0878906 18.6565 5.43242 24 12.0005 24C18.5686 24 23.9131 18.6555 23.9131 12.0874C23.9131 8.41476 22.257 5.00383 19.3714 2.72658Z" fill="white"/>
</svg>

<svg width="24" height="24" fill="none" xmlns="http://www.w3.org/2000/svg"><path d="M10.141 11.157V1.86a1.86 1.86 0 0 1 3.719 0v9.297a1.86 1.86 0 0 1-3.719 0Zm9.23-8.43a1.396 1.396 0 0 0-1.727 2.19 9.082 9.082 0 0 1 3.48 7.17c0 5.03-4.093 9.124-9.122 9.124-5.031 0-9.124-4.093-9.124-9.124A9.08 9.08 0 0 1 6.355 4.92a1.396 1.396 0 0 0-1.728-2.19 11.855 11.855 0 0 0-4.54 9.357C.088 18.657 5.433 24 12.002 24c6.568 0 11.912-5.345 11.912-11.913 0-3.672-1.656-7.083-4.542-9.36Z" fill="#fff"/></svg>
